X: 92
M:6/8
L:1/8
K:G
|:g2 f g2 d| =f2 f e2 d| efg g2 d|edB A3| edc Bcd| edc Bcd | edB c2 B| AGF G3:|

